X:1
T:Sin ganna quel core
T:Sin ganna quel core
T:Bartolomeo Spighi da Prato
C:Bartolomeo Spighi da Prato
%%score 1 { 2 | 3 }
L:1/8
Q:1/4=120
M:3/2
K:C
V:1 treble nm="Soprano" snm="S"
V:2 treble nm="MusicXML Part"
V:3 bass 
V:1
"^S'inganna quel core" z4 c2 c3 B d2"^ARIETTA" | c3 A c2 BA BcdB | e3 e d2 cB cdec | %3
w: S'in- gan- na quel|co- re che cre- * * * * *|* d'alla _ fort'- * * * * *|
w: Ben a- pre se-|re- ne la can- * * * * *|* di- da lu- * * * * *|
w: Fug- gi te gl'in-|can- ti fug- gi- * * * * *|* te la pe- * * * * *|
 f2 f2 f2 f2 d2 e2 | c4 G2 G2 G2 G2 | AGAB cA Bc BAGF | E2 E2 G2 G2 G2 ^F2 | G4 G2 G2 G3 G | %8
w: * c'in- fi- d'el- * la|e nel re- gno d'A-|mo- * * * * * * * * * * *|* re gio- ir non di|da ec- cer- to la|
w: * ce il cie- lo d'A-|mor ma vi- sta sia|pe- * * * * * * * * * * *|* na che nu- be di|duol la piog- ga con-|
w: * ne del di- o ta-|di- tor, fu- nes- t'i|mie- * * * * * * * i _ _ _|can- ti po- tres- te tro-|var che stan le si-|
 A2 A2 A2 D2 D3 E | C12 :: z2 c2 B2 A2 d2 d2 | BABc de f2 d4 | d4 ^c2 d4 d2 | e4 d2 ^c2 d2 c2 | %14
w: mor- te e'in for- te pie-|ta.|Po- co gio- va spe-|rar _ _ _ _ _ _ lun-|ga mer- ce ch'A-|mor fe- li- ce vien|
w: du- ce e mas- chie- r'il|sol,|bre- ve cal- m'ha quel|mar- * * * * * che gon-|fia un cor [che|gon- fia il cor] sta-|
w: re- ne frai flus- si del|mar,|qual on- da ch'e be-|van- * * * * * da an-|ne- g'an- cor ab|non spe- ra- re da|
 B4"^#" c2 A6 | E2 E2 F2 GA GFED | C2 C2 c2 c4 d2 | efed cB AB ABcd | e2 e2 fe d2 d2 e2 | c12 :| %20
w: tost' al fia|fan- ciul- lo nas- * * * * *|* ce fan- ciul- lo,|nas- * * * * * * * * * * *|* ce, mo- * re ban- *|bin.|
w: gion ri- den-|te, e ben gen- * * * * *|* til ma po- co|du- * * * * * * * * * * *|* ro ser- * ra d'A- *|pril.|
w: fior il mel,|ch'A- mor e ser- * * * * *|* pe che suc- chia|il- * * * * * * * * * * *|fel[ che suc- * chia- il _|fel].|
V:2
 [CEGc]6 [DG]6 | [FA]6 [DG]6 | [EG]4 [DG]2 [EA]6 | [FAc]6 [DB]6 | [EG]6 [DG]6 | [Ec]6 [GB]6 | %6
 [Gc]4 [GB]2 [DA]2 [DG]2 [D^F]2 | [DGB]6 [EGc]6 | [FAc]6 [DGB]2 [DGc]2 [EGB]2 | [EGc]12 :: %10
 [CEG]4 [DG]2 [FA]6 | [DGB]6 [Ac]2 [DA]2 [GB]2 | [EA]6 [^FA]6 | [Gc]4 [GB]2 [EA]2 [^FA]4 | %14
 [E^G]6 [^CE]6 | [Gc]4 [Ac]2 [DB]6 | [EG]4 [FA]2 [Fc]4 [DG]2 | [EG]6 [FAc]6 | [EG]4 [FAc]2 [DGB]6 | %19
 [EG]12 :| %20
V:3
 z4 C,2 G,6 | A,6 G,6 | C2 C2 B,2 A,6 | F,6 G,6 | C,2 C4 B,6 | A,6 G,6 | C4 B,2 A,6 | G,6 C6 | %8
 F,6 G,2 G,,4 | C,12 :: z2 C,2 G,2 F,2 D,4 | G,6 F,4 G,2 | A,6 D,4 D2 | C4 B,2 A,2 D,4 | E,6 A,,6 | %15
 C,4 A,,2 G,,6 | C,4 F,,2 A,,4 B,,2 | C,6 F,6 | C,4 F,,2 G,,6 | C,12 :| %20

